24x24/apps/AdobeFlash.svg

<svg xmlns="http://www.w3.org/2000/svg" width="24" height="24" version="1">
 <g transform="translate(1,1)">
  <rect fill="#c2352a" width="20" height="20" x="-21" y="-21" rx="1" ry="1" transform="matrix(0,-1,-1,0,0,0)"/>
  <path fill="#fff" opacity=".2" d="m2 1c-0.554 0-1 0.446-1 1v0.5c0-0.554 0.446-1 1-1h18c0.554 0 1 0.446 1 1v-0.5c0-0.554-0.446-1-1-1h-18z"/>
  <path opacity=".2" d="m2 21.5c-0.554 0-1-0.446-1-1v-0.5c0 0.554 0.446 1 1 1h18c0.554 0 1-0.446 1-1v0.5c0 0.554-0.446 1-1 1h-18z"/>
  <path opacity=".2" d="m15.875 4.5008c-0.982 0.0149-4.997 0.441-6.6094 6.3172-1.3339 4.863-3.8074 4.696-4.2656 4.656v2.9866c0.4641 0.03554 4.5132 0.67873 6.3905-4.9832h3.6094v-2.9948h-2.3594c0.09-0.312 0.813-2.8945 3.36-2.9948v-2.9876c-0.0367-0.0003693-0.04485-0.0009982-0.125 0z"/>
  <path fill="#fff" d="m15.875 4.0008c-0.982 0.0149-4.997 0.441-6.6094 6.3172-1.3339 4.863-3.8074 4.696-4.2656 4.656v2.9866c0.4641 0.03554 4.5132 0.67873 6.3905-4.9832h3.6094v-2.9948h-2.3594c0.09-0.3121 0.813-2.8947 3.36-2.995v-2.9876c-0.0367-0.0003693-0.04485-0.0009982-0.125 0z"/>
 </g>
</svg>

<svg xmlns="http://www.w3.org/2000/svg" width="24" height="24" version="1"><g transform="translate(1 1)"><rect fill="#c2352a" width="20" height="20" x="-21" y="-21" rx="1" ry="1" transform="matrix(0 -1 -1 0 0 0)"/><path fill="#fff" opacity=".2" d="M2 1c-.554 0-1 .446-1 1v.5c0-.554.446-1 1-1h18c.554 0 1 .446 1 1V2c0-.554-.446-1-1-1H2z"/><path opacity=".2" d="M2 21.5c-.554 0-1-.446-1-1V20c0 .554.446 1 1 1h18c.554 0 1-.446 1-1v.5c0 .554-.446 1-1 1H2zM15.875 4.5c-.982.016-4.997.442-6.61 6.318C7.933 15.681 5.459 15.514 5 15.474v2.987c.464.035 4.513.678 6.39-4.984H15v-2.994h-2.36c.09-.312.813-2.895 3.36-2.995V4.5h-.125z"/><path fill="#fff" d="M15.875 4c-.982.016-4.997.442-6.61 6.318C7.933 15.181 5.459 15.014 5 14.974v2.987c.464.035 4.513.678 6.39-4.984H15V9.983h-2.36c.09-.313.813-2.895 3.36-2.995V4h-.125z"/></g></svg>
